svgs/thin/file-prescription.svg

<svg xmlns="http://www.w3.org/2000/svg" viewBox="0 0 384 512"><!--! Font Awesome Pro 6.3.0 by @fontawesome - https://fontawesome.com License - https://fontawesome.com/license (Commercial License) Copyright 2023 Fonticons, Inc. --><path d="M374.6 150.6l-141.3-141.3C227.4 3.371 219.2 0 210.7 0H64C28.65 0 0 28.65 0 64l.0065 384c0 35.34 28.65 64 64 64H320c35.35 0 64-28.66 64-64V173.3C384 164.8 380.6 156.6 374.6 150.6zM224 22.63L361.4 160H248C234.8 160 224 149.2 224 136V22.63zM368 448c0 26.47-21.53 48-48 48H64c-26.47 0-48-21.53-48-48V64c0-26.47 21.53-48 48-48h144v120c0 22.06 17.94 40 40 40h120V448zM190.5 315.2C210.2 306.5 224 286.9 224 264c0-30.88-25.12-56-56-56h-64C99.58 208 96 211.6 96 216v160C96 380.4 99.55 384 103.1 384S112 380.4 112 376V320h56c1.457 0 2.826-.3203 4.256-.4297L228.7 376l-50.34 50.34c-3.125 3.125-3.125 8.188 0 11.31c3.127 3.127 8.186 3.127 11.31 0L240 387.3l50.34 50.34c3.127 3.127 8.186 3.127 11.31 0c3.125-3.125 3.125-8.188 0-11.31L251.3 376l34.34-34.34c3.125-3.125 3.125-8.188 0-11.31s-8.188-3.125-11.31 0L240 364.7L190.5 315.2zM168 304L112 304l.002-79.98L168 224c22.06 0 40 17.94 40 40S190.1 304 168 304z"/></svg>

<svg xmlns="http://www.w3.org/2000/svg" viewBox="0 0 384 512"><!-- Font Awesome Pro 6.0.0-alpha2 by @fontawesome - https://fontawesome.com License - https://fontawesome.com/license (Commercial License) --><path d="M374.629 150.625L233.371 9.375C227.371 3.371 219.23 0 210.746 0H64C28.652 0 0 28.652 0 64V448C0 483.344 28.652 512 64 512H320C355.348 512 384 483.344 384 448V173.254C384 164.766 380.629 156.629 374.629 150.625ZM224 22.629L361.375 160H248C234.781 160 224 149.234 224 136V22.629ZM368 448C368 474.469 346.469 496 320 496H64C37.531 496 16 474.469 16 448V64C16 37.531 37.531 16 64 16H208V136C208 158.062 225.938 176 248 176H368V448ZM190.506 315.195C210.188 306.5 224 286.859 224 264C224 233.125 198.875 208 168 208H104C99.578 208 96 211.594 96 216V376C96 380.406 99.578 384 104 384S112 380.406 112 376V320H168C169.457 320 170.826 319.68 172.256 319.57L228.688 376L178.344 426.344C175.219 429.469 175.219 434.531 178.344 437.656C181.471 440.783 186.529 440.783 189.656 437.656L240 387.312L290.344 437.656C293.471 440.783 298.529 440.783 301.656 437.656C304.781 434.531 304.781 429.469 301.656 426.344L251.312 376L285.656 341.656C288.781 338.531 288.781 333.469 285.656 330.344S277.469 327.219 274.344 330.344L240 364.688L190.506 315.195ZM168 304H112V224H168C190.062 224 208 241.938 208 264S190.062 304 168 304Z"/></svg>
